X:1
T:Title
%%score { 1 | ( 2 3 ) }
L:1/8
M:6/8
K:D
V:1 treble nm="Grand Piano"
V:2 bass 
V:3 bass 
V:1
 z3 z2[Q:1/4=87] [FA] | [FA][=F^G][^FA] [=GB]2 [FA] | [EG]2 [EA] [DF]2 [DF] | %3
 [CA]2 [CE] [DF]2 [EG] | [DF]3- [DF]2 [FA] | [FA][=F^G][^FA] [=GB]2 [FA] | [EA]2 [EG] F2 F | %7
 E2 A ^G2 B | [CA]3- [CA]2 A | c2 B A2 [CG] | [DF]2 [EG] [FA]2 [FA] | B2 B ^A2 A | %12
 [FA]3- [FA]2 [FA] | [FA][=F^G][^FA] [Fd]2 F |[M:7/8] G2 A B3 ^A |[M:13/16] A^GAcB[=Gc]3/2 | %16
[M:5/8] [Fd]-[Fd]- [Fd]3 |] %17
V:2
 z3 z2 [D,A,] | [D,A,]2 [D,A,] [D,D]2 [D,D] | [C,A,]2 [C,A,] [D,A,]2 [D,A,] | %3
 [A,,A,]2 [A,,A,] [A,,A,]2 [A,,A,] | [D,A,]3- [D,A,]2 [D,D] | [D,D]2 [D,D] [D,D]2 [D,D] | %6
 [C,A,]2 [C,A,] [D,A,D]2 [D,A,D] | [E,A,C]2 [E,CE] [E,B,D]2 [E,^G,D] | %8
 [A,,E,A,]3- [A,,E,A,]2[K:treble] [A,CG] | [A,EG]2 [A,DG] [A,CG]2[K:bass] [A,,A,] | %10
 [D,A,]3 [D,D]2 [D,D] | [G,DG]2 [G,DG] [G,DG]2 [G,DG] | [D,D]3- [D,D]2 [D,D] | %13
 [D,D]2 [D,D] [D,A,]2 [D,A,D] |[M:7/8] [E,A,D]2 [F,=CD][K:treble] [G,B,D]3 [G,DG] | %15
[M:13/16] .F3/2 z/ z/ z/ z/ z/ z/ z/[K:bass] z/ z |[M:5/8] [D,A,]-[D,A,]- [D,A,]3 |] %17
V:3
 x6 | x6 | x6 | x6 | x6 | x6 | x6 | x6 | x5[K:treble] x | x5[K:bass] x | x6 | x6 | x6 | x6 | %14
[M:7/8] x3[K:treble] x4 |[M:13/16] [A,D]-[A,D=F][A,D^F][A,EG]-<[A,EG][K:bass][A,,A,]3/2 | %16
[M:5/8] x5 |] %17

